X:1
T: The Button Boy
C:Muriel A Johnstone
R:Reel
%Q: 232
K:G
M:4/4
L:1/8
|:d2|g3e dB Bd|e2 ge dG GB|c2 Bc Ac Gc|Fc Ec Dc BA|
G2 ge dB Bd|e2 ge dG GB|c2 Bc Ac Gc|FD EF G2 ga|
b3a gd dg|a2 c'b ad da|b3a gd BG|cB AG A2 ga|
b3a gd dg|a2 c'b ad ef|g2 fg eg dg|cg ba g2:|
